X: 196
T: the Pocket Book
B: 204 Favourite Country Dances
N: Published by Straight & Skillern, London ca.1775
F: http://imslp.org/wiki/204_Favourite_Country_Dances_(Various) p.98 #196
Z: 2014 John Chambers <jc:trillian.mit.edu>
M: 6/8
L: 1/8
K: D
% - - - - - - - - - - - - - - - - - - - - - - - - -
|:\
d3 DFA | dfa ecA |\
d3 DFA | g2f e3 :|\
|:\
ded ecA | fgf afA |
ded ecA | gfe d3 :|\
|:\
Ace g2e | (f/g/a)f ecA |\
Ace g2e | (f/g/a)f d3 :|
% - - - - - - - - - - - - - - - - - - - - - - - - -
%%begintext align
%% First Cu. foot it and cast off one Cu. .|
%% foot it and cast up again :| lead down
%% one Cu up again and cast off :|. foot it
%% Right and Left at top :|:
%%endtext

%%sep 1 1 500
%%sep 1 1 500
